svgs/solid/truck-clock.svg

<svg xmlns="http://www.w3.org/2000/svg" viewBox="0 0 640 512"><!--! Font Awesome Pro 6.2.0 by @fontawesome - https://fontawesome.com License - https://fontawesome.com/license (Commercial License) Copyright 2022 Fonticons, Inc. --><path d="M0 48C0 21.5 21.5 0 48 0H368c26.5 0 48 21.5 48 48V96h50.7c17 0 33.3 6.7 45.3 18.7L589.3 192c12 12 18.7 28.3 18.7 45.3V256v32 64c17.7 0 32 14.3 32 32s-14.3 32-32 32H576c0 53-43 96-96 96s-96-43-96-96H256c0 53-43 96-96 96s-96-43-96-96H48c-26.5 0-48-21.5-48-48V48zM416 256H544V237.3L466.7 160H416v96zM160 464c26.5 0 48-21.5 48-48s-21.5-48-48-48s-48 21.5-48 48s21.5 48 48 48zm368-48c0-26.5-21.5-48-48-48s-48 21.5-48 48s21.5 48 48 48s48-21.5 48-48zM320 176c0-61.9-50.1-112-112-112S96 114.1 96 176s50.1 112 112 112s112-50.1 112-112zM208 96c8.8 0 16 7.2 16 16v48h16c8.8 0 16 7.2 16 16s-7.2 16-16 16H208c-8.8 0-16-7.2-16-16V112c0-8.8 7.2-16 16-16z"/></svg>

<svg xmlns="http://www.w3.org/2000/svg" viewBox="0 0 640 512"><!--! Font Awesome Pro 6.1.2 by @fontawesome - https://fontawesome.com License - https://fontawesome.com/license (Commercial License) Copyright 2022 Fonticons, Inc. --><path d="M208 96C216.8 96 224 103.2 224 112V160H240C248.8 160 256 167.2 256 176C256 184.8 248.8 192 240 192H208C199.2 192 192 184.8 192 176V112C192 103.2 199.2 96 208 96zM0 48C0 21.49 21.49 0 48 0H368C394.5 0 416 21.49 416 48V96H466.7C483.7 96 499.1 102.7 512 114.7L589.3 192C601.3 204 608 220.3 608 237.3V352C625.7 352 640 366.3 640 384C640 401.7 625.7 416 608 416H576C576 469 533 512 480 512C426.1 512 384 469 384 416H256C256 469 213 512 160 512C106.1 512 64 469 64 416H48C21.49 416 0 394.5 0 368V48zM544 256V237.3L466.7 160H416V256H544zM160 464C186.5 464 208 442.5 208 416C208 389.5 186.5 368 160 368C133.5 368 112 389.5 112 416C112 442.5 133.5 464 160 464zM480 368C453.5 368 432 389.5 432 416C432 442.5 453.5 464 480 464C506.5 464 528 442.5 528 416C528 389.5 506.5 368 480 368zM208 64C146.1 64 96 114.1 96 176C96 237.9 146.1 288 208 288C269.9 288 320 237.9 320 176C320 114.1 269.9 64 208 64z"/></svg>
